X:1
T:Title
%%score 1 2 3
L:1/8
M:4/4
K:C
V:1 treble nm="Part_1"
V:2 treble nm="Part_2"
V:3 bass nm="Part_3"
V:1
 z2 dc B2 A/B/c/B/ | A3 G GGBA | G2 ^F/G/A/G/ F3 E | EEE^F GABc | AGAB cdef | d4 c4 |[M:3/2] z12 | %7
 d6 d2 ^c4 | d8 z4 | e6 e2 ^d4 |[M:4/4] e8 | z2 e2 eddc | d2 de c4 | cABc dd d2- | d2 de e4 | %15
 d4 z4 | z GGG AA/A/ BB/B/ | cc/e/ ed/d/ dd/c/ B>A | A4 z4 | z DDD EE/E/ ^FF/F/ | %20
 GG/B/ BA/A/ AA/G/ ^F>E | E4 z EEE | ^FF/F/ ^GG/G/ AA/c/ cB/B/ | BB/A/ A>^G AB BA/A/ | %24
 AA/G/ G>^F G4 | z8 | z8 | z8 | z8 | z8 | z8 |[M:3/2] G6 G2 ^F4 | G8 z4 | A6 A2 ^G4 | A8 z4 | %35
[M:4/4] z8 | z2 c2 cBBA | B2 Bc A4 | A4 z4 | z8 | z DDD EE/E/ ^FE/F/ | GG/G/ GF/F/ FF/E/ D>C | %42
 C4 z4 | z AAA BB/B/ ^cB/c/ | dd/d/ dc/c/ cc/B/ A>G | G4 z4 | z4 z GGG | AA/A/ BA/B/ cc/e/ ed/d/ | %48
 dd/c/ B>A Ad dc/c/ | cc/B/ A>G G4 | z2 dc B2 A/B/c/B/ | A3 G GGBA | G2 ^F/G/A/G/ F3 E | %53
 EEE^F GABc | AGAB cdef | d4 c4 |[M:3/2] z12 | d6 d2 ^c4 | d8 z4 | e6 e2 ^d4 |[M:4/4] e4 z Bcd | %61
 ee e4 dc | d2 de c4 | cABc d2 dd | d2 e2 e4 | d4 z4 | z GGG AA/A/ BA/B/ | cc/e/ ed/d/ dd/c/ B>A | %68
 AA z2 z4 | z DDD EE/E/ ^FE/F/ | GG/B/ BA/A/ AA/G/ ^F>E | EE z2 z GGG | AA/A/ BA/B/ cc/e/ ee/d/ | %73
 dd/c/ B>A AA/d/ dc/c/ | cc/B/ A>G GG z2 | z2 d2 d2 dc | c2 cB B2 A2 | A8 | G8- | G8 |] %80
V:2
 z8 | z8 | z8 | z8 | z8 | z8 |[M:3/2] G6 G2 ^F4 | G8 z4 | A6 A2 ^G4 | A8 z4 |[M:4/4] z8 | %11
 z2 c2 cBBA | B2 Bc A4 | A4 z4 | z8 | z DDD EE/E/ ^FF/F/ | GG/G/ GF/F/ FF/E/ D>C | C4 z4 | %18
 z AAA BB/B/ ^cc/c/ | dd/d/ dc/c/ cc/B/ A>G | G4 z4 | z4 z GGG | AA/A/ BB/B/ cc/e/ ed/d/ | %23
 dd/c/ B>A Ad dc/c/ | cc/B/ A>G G4 | z2 dc B2 A/B/c/B/ | A3 G GGBA | G2 ^F/G/A/G/ F3 E | %28
 EEEF GABc | AGAB cded | d4 c4 |[M:3/2] z12 | d6 d2 ^c4 | d8 z4 | e6 e2 ^d4 |[M:4/4] e8 | %36
 z2 e2 eddc | d2 de c4 | cABc dd d2- | d2 de e4 | d4 z4 | z GGG AA/A/ BA/B/ | %42
 cc/e/ ee/d/ dd/c/ B>A | A4 z4 | z DDD EE/E/ ^FE/F/ | GG/B/ BA/A/ AA/G/ ^F>E | E4 z EEE | %47
 ^FF/F/ ^GF/G/ AA/c/ cB/B/ | BB/A/ A>^G AB BA/A/ | AA/G/ G>^F G4 | z2 BA G2 G2 | G3 ^F GGGF | %52
 E2 E2 E3 D | EEED E^FGA | ^FEF^G ABcc | c2 B2 c4 |[M:3/2] G6 G2 ^F4 | G8 z4 | A6 A2 ^G4 | A8 z4 | %60
[M:4/4] z4 z ^GAB | cc c4 BA | B2 Bc A4 | A4 z4 | z8 | z DDD EE/E/ ^FE/F/ | GG/G/ GF/F/ FF/E/ D>C | %67
 CC z2 z4 | z AAA BB/B/ ^cB/c/ | dd/d/ dc/c/ cc/B/ A>G | GG z2 z4 | z4 z EEE | %72
 ^FF/F/ ^GF/G/ AA/c/ cB/B/ | BB/A/ A>^G AA/B/ BA/A/ | AA/G/ G>^F GG z2 | z2 B2 B2 BA | A2 AG G4- | %77
 G2 G2 G2 ^F2 | G8- | G8 |] %80
V:3
 G,,2- G,,A,, B,,2 C,2 | D,4 G,,2 E,,^F,, | G,,2 A,,2 B,,4 | E,2 D,2 C,2 B,,2 | %4
 D,2 B,,2 A,,2 E,,2 | F,,2 G,,2 C,4 |[M:3/2] C,8 D,4 | G,,8 A,,4 | D,8 E,4 | A,,8 B,,4 | %10
[M:4/4] E,8 | C,8 | G,,4 A,,4 | A,,4 ^F,,4 | _B,,4 A,,4 | D,2 B,,2 C,2 D,2 | G,2 E,2 F,2 G,2 | %17
 C,2 A,,2 D,2 E,2 | A,,2 ^F,2 G,2 A,2 | D,2 B,,2 C,2 D,2 | G,,2 E,,2 A,,2 B,,2 | E,4 E,4 | %22
 D,2 B,,2 A,,2 C,2 | D,2 E,2 A,,2 B,,2 | C,2 D,2 G,,4- | G,,2 G,,A,, B,,2 C,2 | D,4 G,,2 E,,^F,, | %27
 G,,2 A,,2 B,,4 | E,2 D,2 C,2 B,,2 | D,2 B,,2 A,,2 E,,2 | F,,2 G,,2 C,4 |[M:3/2] C,8 D,4 | %32
 G,,8 A,,4 | D,8 E,4 | A,,8 B,,4 |[M:4/4] E,8 | C,8 | G,,4 A,,4 | A,,4 ^F,,4 | _B,,4 A,,4 | %40
 D,2 B,,2 C,2 D,2 | G,2 E,2 F,2 G,2 | C,2 A,,2 D,2 E,2 | A,,2 ^F,2 G,2 A,2 | D,2 B,,2 C,2 D,2 | %45
 G,,2 E,,2 A,,2 B,,2 | E,4 E,4 | D,2 B,,2 A,,2 C,2 | E,2 F,2 A,,2 B,,2 | C,2 D,2 G,,4- | %50
 G,,2 G,,A,, B,,2 C,2 | D,4 G,,2 E,,^F,, | G,,2 A,,2 B,,4 | C,2 D,2 C,2 B,,2 | D,2 B,,2 A,,2 E,,2 | %55
 F,,2 G,,2 C,4 |[M:3/2] C,8 D,4 | G,,8 A,,4 | D,8 E,4 | A,,8 B,,4 |[M:4/4] E,6 D,2 | C,8 | %62
 G,,4 A,,4 | A,,4 ^F,,4 | _B,,4 G,,4 | D,2 B,,2 C,2 D,2 | G,2 E,2 F,2 G,2 | C,2 A,,2 D,2 E,2 | %68
 A,,2 ^F,2 G,2 A,2 | D,2 B,,2 C,2 D,2 | G,,2 E,,2 A,,2 B,,2 | E,4 E,4 | D,2 B,,2 A,,2 C,2 | %73
 D,2 E,2 A,,2 B,,2 | C,2 D,2 G,,4 | G,,8 | A,,4 B,,4 | C,4 D,4 | G,,8- | G,,8 |] %80

